X:1
T:Domine, Dominus noster - Giacomelli
T:#
%%score [ 1 2 3 ]
L:1/8
Q:1/4=100
M:none
K:C
V:1 treble nm="Soprano I" snm="S I"
V:2 treble nm="Soprano II" snm="S II"
V:3 treble nm="Alto" snm="A"
V:1
"^Domine, Dominus noster""^Geminiano Giacomelli\n (1692-1740)"!mf! (GBc)c c2 d2 cc (BAB)[Q:1/4=40] !fermata!c2 || %1
w: Do\- * * mi- ne, Do- mi- nus no\- * * ster,|
[M:3/4]!f![Q:1/4=100] c2 c2 c2 | c3 B A2 | e6 |[M:3/4] (e3 d) c2 | z6 | e2 e2 e2 | e3 e f2 | %8
w: Quam ad- mi-|ra- bi- le|est|no\- * men,||quam ad- mi-|ra- bi- le|
 d2 d2 d2 | e4 e2 | d6 | e4 e2 | e4 e2 | c4 c2 | c2 c2 c2 | d4 d2- | d2 (c4 | B2 e4- | e2 d4) | %19
w: est no- men,|no- men|tu-|um in|u- ni-|ver- sa,|in u- ni-|ver- sa|* ter\-|||
 !fermata!e6 ||!p![Q:1/4=80] (GA Gc) c c2 dccBA !fermata!c2 | c3 A c(B !fermata!A2) x6 || %22
w: ra.|Glo\- * * * ri- a Pa- tri et Fi- li- o:|Et~Spiri- tui San- cto: *|
[M:4/4][Q:1/4=120] z4!f! e4 | e2 (e4 dc | d4) e2 e2- |[M:4/4][Q:1/4=120] e2 d2 (c4 | %26
w: Si-|cut e\- * *|* rat in|* prin- ci\-|
[Q:1/4=120][Q:1/4=120] B3) c d2 z f | (ed) (ec) d4 | c2 e4 e2 | e2 ee e2 e2 | (c4 B3 A) | ^G4 z4 | %32
w: * pi- o, et|nunc * et * sem-|per, et in|sae- cu- la sae- cu-|lo\- * *|rum.|
 z4 z2!ff! (!^!e2- | e2 c2) B4 | z2 (e4 d2 | cBc[Q:1/4=119]d[Q:1/4=116] e4) | %36
w: A\-|* * men,|A\- *||
[Q:1/4=112] A2[Q:1/4=108] (d4[Q:1/4=105] c2 |[Q:1/4=102] B4)[Q:1/4=100] !fermata!^c4 |] x8 |] %39
w: men, A\- *|* men.||
V:2
 x8 x7 ||[M:3/4] z6 |!f! A2 A2 A2 | ^G3 ^F E2 | x6 |[M:3/4] e2 e2 e2 | c3 B A2 | B6 | c4 d2- | %9
w: ||Quam ad- mi-|ra- bi- le,||quam ad- mi-|ra- bi- le|est|no- men,|
 d2 !>!B4 | c6- | c2 !^!B4 | c4 c2 | c4 c2 | A4 A2 | A2 A2 A2 | B4 A2 | (^G2 A4- | A2 ^G4 | A6) || %20
w: * no-|men|* tu-|um in|u- ni-|ver- sa,|in u- ni-|ver- sa|ter\- *|||
 !fermata!^G6 x8 | x14 || x8 |[M:4/4]!f! A4 B4 | (c3 B A4- | A4) ^G4- |[M:4/4] G4 z4 | %27
w: ra.|||Si- cut|e\- * *|* rat||
 z2 B2 A2 A2 | (^G2 A4 G2) | A4 z2 A2- | A2 A2 A2 AA | A2 A2 (^G3 ^F) | E4 z2 !^!B2- | %33
w: et nunc et|sem\- * *|per, et|* in sae- cu- la|sae- cu- lo\- *|rum. A\-|
 B2 ^G2!ff! (A3 B | c2 A2) ^G4 | z2 (c4 B2 | A^GAB c2 Bc) | d2 (A2 ^G2 A2- |] %38
w: * men, A\- *|* * men,|A\- *||men, A\- * *|
 A2 ^G2) !fermata!A4 |] %39
w: * * men.|
V:3
 x8 x7 ||[M:3/4] z6 | z6 |!f! E2 E2 E2 | x6 |[M:3/4] C3 B, A,2 | A2 A2 A2 | ^G3 ^F E2 | A2 A2 F2- | %9
w: |||Quam ad- mi-||ra- bi- le,|quam ad- mi-|ra- bi- le|est no- men,|
 F2 (G4 | C3 D) (EF) | G6 | C4 z2 | z6 | z2 z2 F2 | F4 F2 | D4 D2 | (E2 A,B,CD | E6 | F6) || %20
w: * no\-|* * men *|tu-|um||in|u- ni-|ver- sa|ter\- * * * *|||
 !fermata!E6 x8 | x14 || x8 |[M:4/4] z2!f! A4 ^G2 | (A3 G F4- | F4) E4- |[M:4/4] E4 z2 A2- | %27
w: ra.|||Si- cut|e\- * *|* rat|* in|
 A2 G2 FEFD | E2 C2 B,4 | A,4 z4 | z8 | z4 z2 E2- | E2 E2 E2 EE | E2 E2 (C3 B,) | A,4 z2!ff! (E2- | %35
w: * prin- ci- pi- o et|nunc et sem-|per,||et|* in sae- cu- la|sae- cu- lo\- *|rum. A\-|
 E2 C2 D4) | A,2 (A4 G2 | F2 D2 E4- |] E4) !fermata!A,4 |] %39
w: |men, A\- *||* men.|

